X:1
T:Genevieve's Waltz
C:Manus McGuire
S:"Safron & Blue" CD - Green Linnet #GLCD1206
M:3/4
L:1/8
R:waltz
K:Amaj
E | c>dc BAG | A>Bc E2E | F>Ad cEc | c>BA B2E |
c>dc BAG | A>Bc E2E | F>Ad cEc |1 B>AG A2 :|2 B>AG A2e ||
f>ff fga | e2d c>BA | d>ed cBA | FGA B2e |
f>ff fga | e2d c>BA | d>ed cBA | FAG A2e |
f>ff fga | e2d c>BA | d>ed cBA | FGA B2E |
c>dc BAG | A>Bc E2E | F>Ad cEc | B>AG A3 |]
